icons/lines/search-favorite-two.svg

<svg xmlns="http://www.w3.org/2000/svg" width="24" height="24" viewBox="0 0 24 24" fill="none" stroke="currentColor" stroke-width="2" stroke-linecap="round" stroke-linejoin="round" >
  <path d="M20 11C20 15.97 15.97 20 11 20C6.03 20 2 15.97 2 11C2 6.03 6.03 2 11 2"/>
  <path d="M13.4999 6.12996C13.1499 5.02996 13.5599 3.65996 14.7199 3.28996C15.3299 3.08996 16.0799 3.25996 16.5099 3.84996C16.9099 3.23996 17.6899 3.09996 18.2899 3.28996C19.4499 3.65996 19.8599 5.02996 19.5099 6.12996C18.9599 7.87996 17.0399 8.78996 16.5099 8.78996C15.9699 8.78996 14.0699 7.89996 13.4999 6.12996Z"/>
  <path d="M18.9304 20.6898C19.4604 22.2898 20.6704 22.4498 21.6004 21.0498C22.4504 19.7698 21.8904 18.7198 20.3504 18.7198C19.2104 18.7098 18.5704 19.5998 18.9304 20.6898Z"/>
  </svg>

<svg xmlns="http://www.w3.org/2000/svg" width="24" height="24" viewBox="0 0 24 24" fill="none" stroke="currentColor" stroke-width="2" stroke-linecap="round" stroke-linejoin="round">
  <path d="M13.5 6.13c-.35-1.1.06-2.47 1.22-2.84.61-.2 1.36-.03 1.79.56.4-.61 1.18-.75 1.78-.56 1.16.37 1.57 1.74 1.22 2.84-.55 1.75-2.47 2.66-3 2.66-.54 0-2.44-.89-3.01-2.66" />
  <path d="M18.93 20.69c.53 1.6 1.74 1.76 2.67.36.85-1.28.29-2.33-1.25-2.33-1.14-.01-1.78.88-1.42 1.97" />
  <path d="M20 11a9 9 0 1 1-9-9" />
</svg>
